_includes/icons/ios-float.svg

<svg fill="#666" height="50" viewBox="0 0 50 50" width="50" xmlns="http://www.w3.org/2000/svg"><path d="m24.90625 3.96875c-.042969.007813-.085937.019531-.125.03125-.011719 0-.019531 0-.03125 0-9.839844.082031-18.398437 4.964844-22.375 12.0625-.03125.054688-.066406.101563-.09375.15625-1.460937 2.664063-2.28125 5.636719-2.28125 8.78125 0 6.578125 3.558594 12.414063 9.125 16.25h.03125c4.324219 2.972656 9.859375 4.75 15.84375 4.75 13.707031 0 25-9.304687 25-21 0-11.640625-11.191406-20.914062-24.8125-21-.089844-.023437-.1875-.035156-.28125-.03125zm-1.09375 2.0625c.0625-.003906.125.003906.1875 0v6c-3.402344.1875-6.492187 1.308594-8.8125 3.09375-.589844.453125-1.109375.964844-1.59375 1.5-1.089844-1.339844-2.835937-2.28125-4.65625-2.71875-.78125-.1875-1.585937-.265625-2.375-.21875 3.957031-4.394531 10.144531-7.359375 17.25-7.65625zm2.1875 0c7.183594.253906 13.449219 3.222656 17.4375 7.65625-.789062-.046875-1.59375.03125-2.375.21875-1.820312.4375-3.566406 1.378906-4.65625 2.71875-.484375-.535156-1.003906-1.046875-1.59375-1.5-2.320312-1.785156-5.410156-2.90625-8.8125-3.09375zm-1.1875 7.96875c.0625.007813.125.007813.1875 0 3.382813 0 6.4375 1.058594 8.59375 2.71875s3.40625 3.871094 3.40625 6.28125-1.25 4.621094-3.40625 6.28125c-.441406.339844-.925781.652344-1.4375.9375-.03125.019531-.0625.039063-.09375.0625-1.972656 1.078125-4.417969 1.71875-7.0625 1.71875-2.636719 0-5.0625-.648437-7.03125-1.71875-.039062-.023437-.082031-.042969-.125-.0625-.511719-.285156-.996094-.597656-1.4375-.9375-2.15625-1.660156-3.40625-3.871094-3.40625-6.28125s1.25-4.621094 3.40625-6.28125c2.117188-1.628906 5.101563-2.679687 8.40625-2.71875zm-17.6875 1.65625c.433594.011719.886719.078125 1.34375.1875 1.632813.394531 3.195313 1.472656 3.84375 2.46875-.839844 1.414063-1.3125 3.007813-1.3125 4.6875 0 2.847656 1.378906 5.421875 3.5625 7.34375-1.054687.394531-2.140625 1.039063-3.125 1.9375-1.546875 1.414063-2.851562 3.480469-3 5.90625-4-3.429687-6.4375-8.097656-6.4375-13.1875 0-2.777344.71875-5.421875 2.03125-7.8125.035156-.050781.066406-.101562.09375-.15625.433594-.671875 1.027344-1.058594 1.78125-1.25.375-.097656.785156-.136719 1.21875-.125zm35.75 0c.433594-.011719.84375.027344 1.21875.125.753906.191406 1.347656.578125 1.78125 1.25.019531.03125.039063.0625.0625.09375 1.332031 2.40625 2.0625 5.074219 2.0625 7.875 0 5.089844-2.4375 9.757813-6.4375 13.1875-.148437-2.425781-1.453125-4.492187-3-5.90625-.984375-.898437-2.070312-1.542969-3.125-1.9375 2.183594-1.921875 3.5625-4.496094 3.5625-7.34375 0-1.679687-.472656-3.273437-1.3125-4.6875.648438-.996094 2.210938-2.074219 3.84375-2.46875.457031-.109375.910156-.175781 1.34375-.1875zm-26.46875 16.28125c.269531-.011719.441406.03125.5.0625.03125.011719.0625.023438.09375.03125 2.28125 1.242188 5.039063 1.96875 8 1.96875 2.90625 0 5.617188-.707031 7.875-1.90625.078125-.023437.148438-.054687.21875-.09375.113281-.058594.730469-.128906 1.53125.15625s1.765625.835938 2.59375 1.59375c1.585938 1.449219 2.722656 3.527344 2.21875 6.03125-3.933594 2.625-8.949219 4.21875-14.4375 4.21875s-10.503906-1.59375-14.4375-4.21875c-.503906-2.503906.632813-4.582031 2.21875-6.03125.828125-.757812 1.792969-1.308594 2.59375-1.59375.402344-.144531.761719-.207031 1.03125-.21875z"/></svg>

<svg xmlns="http://www.w3.org/2000/svg" viewBox="0 0 50 50" width="50" height="50" fill="#666"><path d="M 24.90625 3.96875 C 24.863281 3.976563 24.820313 3.988281 24.78125 4 C 24.769531 4 24.761719 4 24.75 4 C 14.910156 4.082031 6.351563 8.964844 2.375 16.0625 C 2.34375 16.117188 2.308594 16.164063 2.28125 16.21875 C 0.820313 18.882813 0 21.855469 0 25 C 0 31.578125 3.558594 37.414063 9.125 41.25 C 9.136719 41.25 9.144531 41.25 9.15625 41.25 C 13.480469 44.222656 19.015625 46 25 46 C 38.707031 46 50 36.695313 50 25 C 50 13.359375 38.808594 4.085938 25.1875 4 C 25.097656 3.976563 25 3.964844 24.90625 3.96875 Z M 23.8125 6.03125 C 23.875 6.027344 23.9375 6.035156 24 6.03125 L 24 12.03125 C 20.597656 12.21875 17.507813 13.339844 15.1875 15.125 C 14.597656 15.578125 14.078125 16.089844 13.59375 16.625 C 12.503906 15.285156 10.757813 14.34375 8.9375 13.90625 C 8.15625 13.71875 7.351563 13.640625 6.5625 13.6875 C 10.519531 9.292969 16.707031 6.328125 23.8125 6.03125 Z M 26 6.03125 C 33.183594 6.285156 39.449219 9.253906 43.4375 13.6875 C 42.648438 13.640625 41.84375 13.71875 41.0625 13.90625 C 39.242188 14.34375 37.496094 15.285156 36.40625 16.625 C 35.921875 16.089844 35.402344 15.578125 34.8125 15.125 C 32.492188 13.339844 29.402344 12.21875 26 12.03125 Z M 24.8125 14 C 24.875 14.007813 24.9375 14.007813 25 14 C 28.382813 14 31.4375 15.058594 33.59375 16.71875 C 35.75 18.378906 37 20.589844 37 23 C 37 25.410156 35.75 27.621094 33.59375 29.28125 C 33.152344 29.621094 32.667969 29.933594 32.15625 30.21875 C 32.125 30.238281 32.09375 30.257813 32.0625 30.28125 C 30.089844 31.359375 27.644531 32 25 32 C 22.363281 32 19.9375 31.351563 17.96875 30.28125 C 17.929688 30.257813 17.886719 30.238281 17.84375 30.21875 C 17.332031 29.933594 16.847656 29.621094 16.40625 29.28125 C 14.25 27.621094 13 25.410156 13 23 C 13 20.589844 14.25 18.378906 16.40625 16.71875 C 18.523438 15.089844 21.507813 14.039063 24.8125 14 Z M 7.125 15.65625 C 7.558594 15.667969 8.011719 15.734375 8.46875 15.84375 C 10.101563 16.238281 11.664063 17.316406 12.3125 18.3125 C 11.472656 19.726563 11 21.320313 11 23 C 11 25.847656 12.378906 28.421875 14.5625 30.34375 C 13.507813 30.738281 12.421875 31.382813 11.4375 32.28125 C 9.890625 33.695313 8.585938 35.761719 8.4375 38.1875 C 4.4375 34.757813 2 30.089844 2 25 C 2 22.222656 2.71875 19.578125 4.03125 17.1875 C 4.066406 17.136719 4.097656 17.085938 4.125 17.03125 C 4.558594 16.359375 5.152344 15.972656 5.90625 15.78125 C 6.28125 15.683594 6.691406 15.644531 7.125 15.65625 Z M 42.875 15.65625 C 43.308594 15.644531 43.71875 15.683594 44.09375 15.78125 C 44.847656 15.972656 45.441406 16.359375 45.875 17.03125 C 45.894531 17.0625 45.914063 17.09375 45.9375 17.125 C 47.269531 19.53125 48 22.199219 48 25 C 48 30.089844 45.5625 34.757813 41.5625 38.1875 C 41.414063 35.761719 40.109375 33.695313 38.5625 32.28125 C 37.578125 31.382813 36.492188 30.738281 35.4375 30.34375 C 37.621094 28.421875 39 25.847656 39 23 C 39 21.320313 38.527344 19.726563 37.6875 18.3125 C 38.335938 17.316406 39.898438 16.238281 41.53125 15.84375 C 41.988281 15.734375 42.441406 15.667969 42.875 15.65625 Z M 16.40625 31.9375 C 16.675781 31.925781 16.847656 31.96875 16.90625 32 C 16.9375 32.011719 16.96875 32.023438 17 32.03125 C 19.28125 33.273438 22.039063 34 25 34 C 27.90625 34 30.617188 33.292969 32.875 32.09375 C 32.953125 32.070313 33.023438 32.039063 33.09375 32 C 33.207031 31.941406 33.824219 31.871094 34.625 32.15625 C 35.425781 32.441406 36.390625 32.992188 37.21875 33.75 C 38.804688 35.199219 39.941406 37.277344 39.4375 39.78125 C 35.503906 42.40625 30.488281 44 25 44 C 19.511719 44 14.496094 42.40625 10.5625 39.78125 C 10.058594 37.277344 11.195313 35.199219 12.78125 33.75 C 13.609375 32.992188 14.574219 32.441406 15.375 32.15625 C 15.777344 32.011719 16.136719 31.949219 16.40625 31.9375 Z"/></svg>
